X:1042
T:Lady Charlote Murray's Strathspey.
M:C
L:1/8
Q:1/4=120
I: :| ||
Z:Jack Campin * www.campin.me.uk * 2009
K:D
A| D/D/D    A>F  B<EE>F| D/D/D    A>F  d>FAF |G>AF>A B<EE>F| D/D/D    f>e  d<DD:|
f|(d/e/f/g/ a>)f g<ee>f|(d/e/f/g/ a>)f b>ga>f|g>ef>d g<ee>f| D/E/F/G/ A>E  F<DD
f| d/e/f/g/ a>f  g<ee>f| d/e/f/g/ a>f  b>ga>f|g>ef>d f<ee>f|(d/e/f/g/ a>)e f<dd|]

